icons/desktop/16/svg/plugin-16.svg

<svg width="16" height="16" viewBox="0 0 16 16" fill="none" xmlns="http://www.w3.org/2000/svg">
<path fill-rule="evenodd" clip-rule="evenodd" d="M11 1.99902C11.327 1.99902 11.7201 2.01903 12.1611 2.08203C12.6451 2.15209 13 2.58136 13 3.07031V4.23438L13.5225 4.28516L13.7812 4.32422C15.0525 4.57884 16 5.69885 16 7.02539V10.9746C16 12.3741 14.9513 13.5653 13.5459 13.7119C11.8584 13.8874 10.0011 14 8 14C6.33683 14 4.48373 13.9228 2.47754 13.7148C1.07827 13.5696 0 12.3897 0 10.9746V7.02539C1.14333e-05 5.62589 1.04866 4.43465 2.4541 4.28809C2.63414 4.26937 2.81613 4.2516 3 4.23438V3.07324C3 2.57424 3.36437 2.15108 3.85938 2.08008C4.20128 2.03111 4.58415 1.99902 5 1.99902C5.327 1.99902 5.72013 2.01903 6.16113 2.08203C6.64507 2.15209 7 2.58136 7 3.07031V4.00977C7.32916 4.0036 7.66253 4 8 4C8.32613 4 8.65955 4.00345 9 4.00977V3.07324C9 2.57424 9.36437 2.15108 9.85938 2.08008C10.2013 2.03111 10.5841 1.99902 11 1.99902ZM8 5.5C6.05513 5.5 4.24992 5.60971 2.60938 5.78027C1.9811 5.84596 1.50001 6.3811 1.5 7.02539V10.9746C1.5 11.6135 1.99009 12.1559 2.63281 12.2227C4.58244 12.4247 6.3833 12.5 8 12.5C9.94487 12.5 11.7501 12.3903 13.3906 12.2197C14.0189 12.154 14.5 11.6189 14.5 10.9746V7.02539C14.5 6.38653 14.0099 5.84407 13.3672 5.77734C11.4176 5.5753 9.6167 5.5 8 5.5Z" fill="black"/>
</svg>

<!-- This Source Code Form is subject to the terms of the Mozilla Public
   - License, v. 2.0. If a copy of the MPL was not distributed with this
   - file, You can obtain one at http://mozilla.org/MPL/2.0/. -->
<svg xmlns="http://www.w3.org/2000/svg" width="16" height="16" fill="context-fill" fill-opacity="context-fill-opacity" viewBox="0 0 16 16">
    <path fill-rule="evenodd" d="M11 1.999c.327 0 .72.02 1.161.083.484.07.839.5.839.988v1.164l.523.051.258.04A2.76 2.76 0 0 1 16 7.024v3.95c0 1.4-1.049 2.59-2.454 2.737a53.6 53.6 0 0 1-11.068.003A2.76 2.76 0 0 1 0 10.975v-3.95c0-1.4 1.049-2.59 2.454-2.737q.27-.028.546-.054v-1.16c0-.5.364-.923.86-.994a8 8 0 0 1 2.301.002c.484.07.839.5.839.988v.94a53 53 0 0 1 2 0v-.937c0-.499.364-.922.86-.993A8 8 0 0 1 11 2M8 5.5c-1.945 0-3.75.11-5.39.28-.629.066-1.11.601-1.11 1.245v3.95c0 .639.49 1.18 1.133 1.248a52 52 0 0 0 10.758-.003c.628-.066 1.109-.601 1.109-1.245v-3.95c0-.638-.49-1.18-1.133-1.248A52 52 0 0 0 8 5.5" clip-rule="evenodd" />
</svg>
